logos/adobe-dreamweaver.svg

<?xml version="1.0" encoding="UTF-8"?>
<svg width="256px" height="250px" viewBox="0 0 256 250" version="1.1" xmlns="http://www.w3.org/2000/svg" preserveAspectRatio="xMidYMid">
    <title>Adobe Dreamweaver</title>
    <g>
        <rect fill="#470137" x="0" y="0" width="256" height="249.6" rx="42.5"></rect>
        <path d="M24.3110933,174.691403 L24.3110933,65.4690133 C24.2711955,65.1335786 24.3709006,64.7964875 24.5868459,64.5367262 C24.8027913,64.2769649 25.1159983,64.1173628 25.4530773,64.0953173 L25.7320166,64.0767718 L25.7320166,64.0767718 L26.6534434,64.0241262 L26.6534434,64.0241262 L27.7017834,63.9759664 L27.7017834,63.9759664 L29.2969905,63.9187314 L29.2969905,63.9187314 L31.117821,63.8694714 L31.117821,63.8694714 L32.6315093,63.83776 L32.6315093,63.83776 L39.6642655,63.7236978 L39.6642655,63.7236978 L43.7252373,63.665888 L43.7252373,63.665888 L46.3029833,63.6353478 L46.3029833,63.6353478 L48.9460023,63.6113341 L48.9460023,63.6113341 L51.6542946,63.5939963 L51.6542946,63.5939963 L54.4278601,63.5834839 L54.4278601,63.5834839 L57.2666987,63.5799467 L57.2666987,63.5799467 C70.0345734,63.5799467 80.6688085,65.8260608 89.1694039,70.3182892 L89.7329493,70.6210987 C97.9752017,74.9679497 104.713281,81.7016905 109.06544,89.9411413 C113.360736,98.1278578 115.508957,107.544526 115.510101,118.191147 C115.636033,125.626115 114.505196,133.028946 112.165312,140.087243 C110.145588,146.065537 107.04917,151.623882 103.028981,156.487765 C99.2846015,160.966954 94.8514441,164.821905 89.8957333,167.908075 C85.0458959,170.923911 79.7644607,173.18243 74.2336,174.605728 C68.8541047,176.015948 63.3172891,176.737257 57.7560427,176.752341 L44.3211738,176.752341 L44.3211738,176.752341 L41.8146769,176.744608 L41.8146769,176.744608 L39.3803413,176.730859 L39.3803413,176.730859 L37.018167,176.710236 L37.018167,176.710236 L34.728154,176.682737 L34.728154,176.682737 L32.008294,176.638004 L32.008294,176.638004 L29.615968,176.582639 L29.615968,176.582639 L27.9518848,176.531127 L27.9518848,176.531127 L26.5098261,176.473199 L26.5098261,176.473199 L25.872056,176.441828 L25.872056,176.441828 L25.289792,176.408853 C24.6371627,176.408853 24.3109298,175.83637 24.3110933,174.691403 Z M46.8251093,84.703136 L46.8251093,155.800789 C48.0205227,155.800789 49.1082382,155.829437 50.088256,155.886731 L52.0821547,156.002414 L52.0821547,156.002414 L53.1064853,156.058347 C53.9911726,156.109017 54.9765566,156.137299 56.0626375,156.143195 L56.6140693,156.144277 C61.5583599,156.209867 66.4749279,155.395811 71.1342187,153.740117 C75.359938,152.218111 79.1822435,149.751122 82.3095893,146.527317 C85.5226531,143.136506 87.970577,139.09561 89.488,134.6776 C91.2457181,129.539584 92.1012962,124.136208 92.0168853,118.706507 C92.1188201,113.59063 91.2895825,108.49886 89.5696427,103.679691 C86.5650135,95.3811729 79.8235595,88.9850679 71.3786453,86.420576 C67.0786649,85.0895327 62.6084947,84.3954192 58.1103866,84.3590079 L56.20776,84.3622732 L56.20776,84.3622732 L54.7303721,84.3747674 L54.7303721,84.3747674 L53.8194601,84.3890465 L53.8194601,84.3890465 L52.9677587,84.4080853 L52.9677587,84.4080853 L52.1752681,84.4318838 L52.1752681,84.4318838 L51.2416089,84.4689893 L51.2416089,84.4689893 L50.0688901,84.523352 L50.0688901,84.523352 L48.1761046,84.623696 L48.1761046,84.623696 L46.8251093,84.703136 Z M211.02048,176.425419 L191.05648,176.425419 C190.586896,176.489316 190.114382,176.330516 189.778699,175.995989 C189.507018,175.598435 189.292143,175.164914 189.140288,174.707968 L188.364567,171.399175 L188.364567,171.399175 L187.865597,169.250117 L187.865597,169.250117 L187.144402,166.111737 L187.144402,166.111737 L186.455923,163.075604 L186.455923,163.075604 L185.80016,160.141718 L185.80016,160.141718 L185.177111,157.31008 L185.177111,157.31008 L184.397273,153.693615 L184.397273,153.693615 L183.29763,148.462474 L183.29763,148.462474 L181.977522,142.075937 L181.977522,142.075937 L181.11253,137.807194 L181.11253,137.807194 L179.982714,132.091915 L179.982714,132.091915 L179.163594,127.842276 L179.163594,127.842276 L178.572625,124.692139 L178.572625,124.692139 L178.132078,122.277487 L178.132078,122.277487 L177.918886,121.078064 L177.918886,121.078064 L177.625904,119.381602 L177.625904,119.381602 L177.44845,118.319076 L177.44845,118.319076 L177.285291,117.31131 L177.285291,117.31131 L177.067354,115.902333 C177.044926,115.752625 177.023093,115.605198 177.001856,115.460053 L176.842496,115.460053 C175.776875,120.155897 174.791986,124.706851 173.887829,129.112917 C172.981568,133.521515 171.996679,137.957973 170.933163,142.422293 L169.740821,147.381554 L169.740821,147.381554 L168.447273,152.691245 L168.447273,152.691245 L167.05201,158.351748 L167.05201,158.351748 L165.861515,163.133129 L165.861515,163.133129 L164.282763,169.423983 L164.282763,169.423983 L162.947253,174.707968 L162.947253,174.707968 C162.732672,175.853803 162.149003,176.425419 161.190453,176.425419 L141.2264,176.425419 C140.696617,176.482364 140.162937,176.361536 139.709344,176.081952 C139.374793,175.746263 139.127937,175.333446 138.990528,174.879872 L118.227797,92.447872 C117.908587,91.5327645 118.334514,91.0747769 119.505579,91.0738987 L139.629419,91.0738987 C140.587513,91.0738987 141.11984,91.4174009 141.2264,92.104384 L142.416255,97.3781399 L142.416255,97.3781399 L143.093383,100.405107 L143.093383,100.405107 L144.364876,106.150145 L144.364876,106.150145 L145.708809,112.332144 L145.708809,112.332144 L146.5768,116.40464 L146.5768,116.40464 L147.123029,119.01943 L147.123029,119.01943 L147.469054,120.705759 L147.469054,120.705759 L147.800574,122.346597 L147.800574,122.346597 L148.11759,123.941945 L148.11759,123.941945 L148.565922,126.24967 L148.565922,126.24967 L148.981621,128.455041 L148.981621,128.455041 L149.240624,129.868423 L149.240624,129.868423 L149.485124,131.236316 L149.485124,131.236316 L149.824679,133.202858 L149.824679,133.202858 L151.028811,140.383027 L151.028811,140.383027 L151.846352,145.137689 L151.846352,145.137689 L152.687409,149.990185 L152.687409,149.990185 L153.204981,153.069739 L153.204981,153.069739 L153.524192,153.069739 C153.666235,151.674722 153.875106,150.287484 154.150041,148.912801 L154.403746,147.696068 L154.403746,147.696068 L155.245084,143.521037 L155.245084,143.521037 L156.296122,138.205031 L156.296122,138.205031 L156.706025,136.179437 L156.706025,136.179437 L157.464047,132.521748 L157.464047,132.521748 L159.949316,120.818649 L159.949316,120.818649 L161.16288,115.021298 L161.16288,115.021298 L161.775988,112.079476 L161.775988,112.079476 L162.166946,110.261027 L162.166946,110.261027 L162.58195,108.392724 C162.65312,108.077186 162.725293,107.75957 162.798467,107.439877 L163.249537,105.496794 L163.249537,105.496794 L163.724651,103.503856 L163.724651,103.503856 L164.223809,101.461065 L164.223809,101.461065 L164.747011,99.3684192 L164.747011,99.3684192 L165.294258,97.22592 L165.294258,97.22592 L165.86555,95.0335669 L165.86555,95.0335669 L166.460885,92.79136 L166.460885,92.79136 C166.501954,92.3114601 166.637775,91.844467 166.860491,91.4173973 C167.019851,91.18928 167.419424,91.0738987 168.057867,91.0738987 L188.980448,91.0738987 C189.619381,91.0738987 189.990859,91.4765333 190.098389,92.2762773 L190.584555,94.3765361 L190.584555,94.3765361 L191.286661,97.4389453 L191.286661,97.4389453 L191.736638,99.4218989 L191.736638,99.4218989 L192.593166,103.24704 L192.593166,103.24704 L193.391791,106.884493 L193.391791,106.884493 L194.132514,110.334257 L194.132514,110.334257 L194.650059,112.798411 L194.650059,112.798411 L196.64413,122.491572 L196.64413,122.491572 L197.517972,126.801954 L197.517972,126.801954 L197.844512,128.426016 L197.844512,128.426016 L198.173365,130.092989 L198.173365,130.092989 L198.482404,131.700751 L198.482404,131.700751 L198.771629,133.249301 C198.818182,133.502459 198.863909,133.753149 198.908812,134.001372 L199.168316,135.461105 L199.168316,135.461105 L199.408005,136.861628 L199.408005,136.861628 L199.627882,138.202938 L199.627882,138.202938 L199.827943,139.485037 L199.827943,139.485037 L200.204795,141.999859 L200.204795,141.999859 L200.482691,143.772169 L200.482691,143.772169 L200.664425,144.885003 L200.664425,144.885003 L200.843334,145.942873 L200.843334,145.942873 L201.019419,146.945779 L201.019419,146.945779 L201.278251,148.347083 L201.278251,148.347083 C201.638713,150.135123 201.905321,151.940809 202.076981,153.756725 L202.396181,153.756725 C202.883265,151.764405 203.326525,149.481924 203.725963,146.909282 L203.942585,145.477564 L203.942585,145.477564 L204.17702,143.985029 L204.17702,143.985029 L204.433979,142.430169 L204.433979,142.430169 L204.713461,140.81298 C204.761918,140.538256 204.811314,140.260933 204.861649,139.981014 L205.174917,138.270337 L205.174917,138.270337 L206.21994,132.767009 L206.21994,132.767009 L206.775531,129.806419 L206.775531,129.806419 L207.547872,125.641838 L207.547872,125.641838 L207.908819,123.68514 L207.908819,123.68514 L208.248167,121.890283 L208.248167,121.890283 L208.607373,120.040362 L208.607373,120.040362 L208.986435,118.135376 L208.986435,118.135376 L209.385356,116.175326 L209.385356,116.175326 L209.804132,114.160211 L209.804132,114.160211 L210.242767,112.090032 L210.242767,112.090032 L210.701259,109.964789 L210.701259,109.964789 L211.212629,107.630897 L211.212629,107.630897 L211.743671,105.24083 L211.743671,105.24083 L212.294386,102.794587 L212.294386,102.794587 L212.864772,100.292169 L212.864772,100.292169 L213.45483,97.7335751 L213.45483,97.7335751 L214.064561,95.118806 L214.064561,95.118806 L214.693963,92.4478613 L214.693963,92.4478613 C214.906115,91.5327538 215.385323,91.0747662 216.131584,91.0738987 L234.817803,91.0738987 C235.775897,91.0738987 236.148544,91.5890987 235.935744,92.6194987 L212.937131,174.879915 C212.798747,175.316012 212.582251,175.723325 212.298197,176.081995 C211.933593,176.359161 211.474909,176.482446 211.02048,176.425419 Z" fill="#FF61F6"></path>
    </g>
</svg>

<?xml version="1.0" encoding="UTF-8"?>
<svg width="256" height="250" version="1.1" xmlns="http://www.w3.org/2000/svg" preserveAspectRatio="xMidYMid">
	<rect fill="#470137" x="0" y="0" width="256" height="249.6" rx="42.5"/>
	<path d="M24.311 174.691V65.47a1.23 1.23 0 0 1 1.142-1.374l.279-.018.921-.053 1.049-.048 1.595-.057 1.82-.05 1.515-.031 7.032-.114 4.061-.058 2.578-.03 2.643-.025 2.708-.017 2.774-.01 2.839-.004c12.768 0 23.402 2.246 31.902 6.738l.564.303a46.279 46.279 0 0 1 19.332 19.32c4.296 8.187 6.444 17.604 6.445 28.25a66.03 66.03 0 0 1-3.345 21.896 51.734 51.734 0 0 1-9.136 16.4 55.041 55.041 0 0 1-13.133 11.421 56.167 56.167 0 0 1-15.662 6.698 65.683 65.683 0 0 1-16.478 2.146H44.321l-2.506-.007-2.435-.014-2.362-.02-2.29-.028-2.72-.045-2.392-.055-1.664-.052-1.442-.058-.638-.031-.582-.033c-.653 0-.98-.573-.979-1.718Zm22.514-89.988v71.098c1.196 0 2.283.028 3.263.086l1.994.115 1.024.056c.885.051 1.87.08 2.957.085l.551.001c4.944.066 9.86-.748 14.52-2.404a29.495 29.495 0 0 0 11.176-7.213 32.645 32.645 0 0 0 7.178-11.85 47.08 47.08 0 0 0 2.529-15.97 42.204 42.204 0 0 0-2.447-15.027 28 28 0 0 0-18.191-17.26A46.133 46.133 0 0 0 58.11 84.36l-1.902.003-1.478.013-.91.014-.852.02-.793.023-.933.037-1.173.054-1.893.1-1.35.08Zm164.195 91.722h-19.964a1.52 1.52 0 0 1-1.277-.429 5.176 5.176 0 0 1-.639-1.288l-.775-3.309-.5-2.149-.72-3.138-.69-3.036-.655-2.934-.623-2.832-.78-3.616-1.1-5.232-1.32-6.386-.864-4.269-1.13-5.715-.82-4.25-.59-3.15-.44-2.415-.214-1.199-.293-1.696-.178-1.063-.163-1.008-.218-1.409-.065-.442h-.16a673.725 673.725 0 0 0-2.954 13.653 438.053 438.053 0 0 1-2.955 13.31l-1.192 4.959-1.294 5.31-1.395 5.66-1.19 4.781-1.58 6.291-1.335 5.284c-.214 1.146-.798 1.717-1.757 1.717h-19.964a2.402 2.402 0 0 1-1.517-.343 2.89 2.89 0 0 1-.718-1.202l-20.763-82.432c-.32-.915.107-1.373 1.278-1.374h20.123c.959 0 1.49.343 1.597 1.03l1.19 5.274.677 3.027 1.272 5.745 1.344 6.182.868 4.073.546 2.614.346 1.687.332 1.64.317 1.596.448 2.308.416 2.205.259 1.413.244 1.368.34 1.967 1.204 7.18.817 4.755.841 4.852.518 3.08h.32c.141-1.395.35-2.783.625-4.157l.254-1.217.841-4.175 1.051-5.316.41-2.026.758-3.657 2.485-11.703 1.214-5.798.613-2.942.39-1.818.416-1.868.216-.953.452-1.943.475-1.993.499-2.043.523-2.093.547-2.142.572-2.192.595-2.243c.041-.48.177-.947.4-1.374.159-.228.558-.343 1.197-.343h20.922c.64 0 1.01.403 1.118 1.202l.487 2.1.702 3.063.45 1.983.856 3.825.799 3.637.74 3.45.518 2.464 1.994 9.694.874 4.31.327 1.624.328 1.667.31 1.608.289 1.548.137.752.26 1.46.239 1.4.22 1.342.2 1.282.377 2.515.278 1.772.181 1.113.18 1.058.175 1.003.26 1.401c.36 1.788.626 3.594.798 5.41h.32c.486-1.993.93-4.275 1.329-6.848l.217-1.431.234-1.493.257-1.555.28-1.617c.048-.275.097-.552.148-.832l.313-1.71 1.045-5.504.556-2.96.772-4.165.36-1.957.34-1.795.36-1.85.378-1.905.4-1.96.418-2.015.439-2.07.458-2.125.512-2.334.53-2.39.551-2.446.57-2.503.59-2.558.61-2.615.63-2.671c.212-.915.691-1.373 1.438-1.374h18.686c.958 0 1.33.515 1.118 1.545l-22.999 82.26a3.776 3.776 0 0 1-.639 1.203c-.364.277-.823.4-1.278.343Z" fill="#FF61F6"/>
</svg>
